Numix-GalliumOS/scalable/actions/help-info-symbolic.svg

<svg xmlns="http://www.w3.org/2000/svg" viewBox="0 0 16 16">
<path style="opacity:.9;fill:#bebebe;color:#bebebe" d="M 8,1.03125 C 4.1467,1.03125 1.03125,4.1467 1.03125,8 1.03125,11.8533 4.1467,14.96875 8,14.96875 11.8533,14.96875 14.96875,11.8533 14.96875,8 14.96875,4.1467 11.8533,1.03125 8,1.03125 z m 1.0625,1.375 C 9.455871,2.3771392 9.83629,2.6745924 9.90625,3.0625 10.111679,3.8045762 9.35693,4.5830844 8.625,4.3125 7.720903,3.9302388 8.126467,2.3938405 9.0625,2.40625 z m -0.25,3.375 c 0.4527831,0.019325 0.7135542,0.6479392 0.5,1.1875 -0.279123,1.5508259 -0.774227,3.063965 -1,4.625 C 8.475132,12.199877 9.196022,11.421181 9.53125,11.25 9.779208,10.933043 9.865416,11.26952 9.96875,11.5 9.298364,12.018605 8.646635,12.577314 7.875,12.9375 7.157017,13.478528 6.407129,12.798527 6.6875,12 6.928706,10.552619 7.267702,9.1313732 7.53125,7.6875 7.600765,6.9101725 6.63483,7.7452966 6.34375,7.9375 6.115328,8.2540924 5.986215,8.0227632 5.875,7.75 6.650938,7.1249067 7.38172,6.4419315 8.28125,6 8.4665315,5.8460924 8.6615723,5.7748082 8.8125,5.78125 z"/>
</svg>

<svg xmlns="http://www.w3.org/2000/svg" viewBox="0 0 16 16">
 <path d="m 8 1.031 c -3.853 0 -6.969 3.115 -6.969 6.969 0 3.853 3.115 6.969 6.969 6.969 3.853 0 6.969 -3.115 6.969 -6.969 0 -3.853 -3.115 -6.969 -6.969 -6.969 z m 1.063 1.375 c 0.393 -0.029 0.774 0.268 0.844 0.656 0.205 0.742 -0.549 1.521 -1.281 1.25 -0.904 -0.382 -0.499 -1.919 0.438 -1.906 z m -0.25 3.375 c 0.453 0.019 0.714 0.648 0.5 1.188 -0.279 1.551 -0.774 3.064 -1 4.625 c 0.163 0.606 0.884 -0.173 1.219 -0.344 0.248 -0.317 0.334 0.02 0.438 0.25 -0.67 0.519 -1.322 1.077 -2.094 1.438 -0.718 0.541 -1.468 -0.139 -1.188 -0.938 0.241 -1.447 0.58 -2.869 0.844 -4.313 0.07 -0.777 -0.896 0.058 -1.188 0.25 -0.228 0.317 -0.358 0.085 -0.469 -0.188 0.776 -0.625 1.507 -1.308 2.406 -1.75 0.185 -0.154 0.38 -0.225 0.531 -0.219 z" style="fill:#bebebe;opacity:1;color:#bebebe"/>
</svg>
